!!!COM: Palestrina, Giovanni Perluigi da
!!!OPR: Missa Lauda Sion
!!!OTL: Sanctus
**kern	**kern	**kern	**kern
*Ibass	*Itenor	*Icalto	*Icant
!Bassus	!Tenor	!Altus	!Cantus
*clefF4	*clefGv2	*clefG2	*clefG2
*k[]	*k[]	*k[]	*k[]
*G:mix	*G:mix	*G:mix	*G:mix
*M4/2	*M4/2	*M4/2	*M4/2
=1	=1	=1	=1
0r	0r	2r	1d
.	.	1G	.
.	.	.	1g
.	.	[2c	.
=2	=2	=2	=2
0r	0r	2c]	1g
.	.	2B	.
.	.	4A	1a
.	.	4G	.
.	.	4A	.
.	.	4B	.
=3	=3	=3	=3
0r	2r	2c	[0g
.	1G	2B	.
.	.	2.e	.
.	[2c	.	.
.	.	4d	.
=4	=4	=4	=4
0r	2c]	4e	1g]
.	.	4c	.
.	2B	2d	.
.	4A	2e	[1cc
.	4G	.	.
.	4A	4c	.
.	4B	4d	.
=5	=5	=5	=5
1r	4c	4e	2cc]
.	4d	4f	.
.	2e	1g	2b
2r	2c	.	1a
[2D	[2d	4f	.
.	.	4e	.
=6	=6	=6	=6
2D]	4d]	4f	1r
.	4c	4e	.
1G	4B	4d	.
.	4A	4c	.
.	2G	2B	1d
2F	2A	2A	.
=7	=7	=7	=7
4E	2B	1G	1g
4D	.	.	.
4E	2e	.	.
4F	.	.	.
2G	2d	2r	1g
2E	2e	[2c	.
=8	=8	=8	=8
1F	2.A	2c]	1a
.	.	1f	.
.	4B	.	.
[1C	[1c	.	1g
.	.	4e	.
.	.	4d	.
=9	=9	=9	=9
1C]	1c]	1e	1.cc
1r	1G	2d	.
.	.	[2g	2b
=10	=10	=10	=10
1D	2.d	2g]	1a
.	.	2f	.
.	4c	.	.
2.G	4B	2e	1g
.	4A	.	.
.	[2B	2d	.
4F	.	.	.
=11	=11	=11	=11
1E	2B]	1g	1r
.	2c#	.	.
1D	2d	2f#	2r
.	[2d	[2f#	[2a
=12	=12	=12	=12
0r	4d]	4f#]	4a]
.	4d	4f#	4a
.	2G	2g	2b
.	[1c	1e	1g
=13	=13	=13	=13
0r	2c]	2c	2e
.	2A	1f	1a
.	1c	.	.
.	.	[2e	2g
=14	=14	=14	=14
1r	1d	4e]	2f
.	.	4d	.
.	.	2.d	4e
.	.	.	4d
2r	1A	.	2e
.	.	8c	.
.	.	8B	.
[2A	.	2c#	2e
=15	=15	=15	=15
4A]	1D	1d	2d
4A	.	.	.
2B	.	.	2.dd
1G	2.d	2r	.
.	.	.	4cc
.	.	[2g	4b
.	4d	.	4a
=16	=16	=16	=16
2E	2e	4g]	2g
.	.	4f	.
1A	2c	4e	2a
.	.	4d	.
.	2A	2c	2f#
2G	[2d	2B	2g
=17	=17	=17	=17
2.F	2d]	2A	1a
.	2c	2A	.
8E	.	.	.
8D	.	.	.
2E	2.B	2G	1r
2E	.	[2g	.
.	8A	.	.
.	8G	.	.
=18	=18	=18	=18
1D	2A	2g]	2a
.	2A	2f#	2a
1r	2.G	2g	1b
.	.	[2d	.
.	4A	.	.
=19	=19	=19	=19
2.G	1B	4d]	1g
.	.	4d	.
.	.	2e	.
4G	.	.	.
2A	1r	2c	2e
2F	.	2A	[2a
=20	=20	=20	=20
2D	0r	2f	2a]
2E	.	1e	2.g
2F	.	.	.
.	.	.	4f
2D	.	[2d	4f
.	.	.	8e
.	.	.	8d
=21	=21	=21	=21
2.A	2r	2d]	1e
.	2.A	2c#	.
4G	.	.	.
2F#	.	1d	1d
.	4A	.	.
2G	2B	.	.
=22	=22	=22	=22
1.C	1G	2.c	2.e
.	.	4d	4f
.	2E	2e	2g
2D	[2A	2d	[2f
=23	=23	=23	=23
2F	2A]	2.c	2f]
2C	2.G	.	2.e
.	.	4B	.
1D	.	[1A	.
.	4F	.	4d
.	4F	.	[2d
.	8E	.	.
.	8D	.	.
=24	=24	=24	=24
1AA	1E	1A]	2d]
.	.	.	2c#
2r	[1D	[1A	[1d
[2D	.	.	.
=25	=25	=25	=25
4D]	1D]	1A]	0d]
4E	.	.	.
2F#	.	.	.
2.G	2r	2r	.
.	[2G	[2B	.
4F	.	.	.
=26	=26	=26	=26
2E	4G]	4B]	1r
.	4A	4c	.
2D	2B	2d	.
1C	2.c	2.e	2r
.	.	.	[2e
.	4B	4d	.
=27	=27	=27	=27
0r	2A	2c	4e]
.	.	.	4f
.	2G	2B	2g
.	4F	4A	2.a
.	4G	4G	.
.	4A	4F	.
.	4B	4G	4g
=28	=28	=28	=28
1r	1c	4A	2f
.	.	4B	.
.	.	1c	2e
2r	1G	.	2d
[2E	.	2B	[2g
=29	=29	=29	=29
4E]	1r	1e	4g]
4F	.	.	4a
2G	.	.	2b
2.A	2r	2r	2.cc
.	[2A	[2c	.
4G	.	.	4b
=30	=30	=30	=30
2F	4A]	4c]	2a
.	4B	4d	.
2E	2c	2e	2g
2D	2.d	2.f	2b-
2F	.	.	[2a
.	4c	4e	.
=31	=31	=31	=31
1G	2B-	0d	2a]
.	4A	.	1g
.	4G	.	.
[1D	1A	.	.
.	.	.	4f
.	.	.	4e
=32	=32	=32	=32
1D]	1A	1d	1f#
1D	1F#	1d	1a
=33	=33	=33	=33
1GG	1G	1.d	1b-
1D	4F	.	1a
.	4G	.	.
.	4A	2f	.
.	4B	.	.
=34	=34	=34	=34
2E	2c	2e	2g
2F#	1c	4d	1a
.	.	4c	.
1G	.	2e	.
.	2B	2d	[2g
=35	=35	=35	=35
0D	0A	0d	2g]
.	.	.	4f
.	.	.	4e
.	.	.	1f#
=36	=36	=36	=36
[0GG	[0G	[0d	[0g
=37	=37	=37	=37
0GG]	0G]	0d]	0g]
==	==	==	==
*-	*-	*-	*-
!!!CDT: 1525/^1526/-1594/2/2
!!!OCY: Italia
!!!AGN: Mass (Parody)
!!!AST: renaissance, vocal
!!!ASW: Motet 1563 (Palestrina)
!!!PWK: Masses, Book 4
!!!RNB: Cadence finals: D
!!!YOR: Le Opere Complete, v. 10, p. 1
!!!YOO: Rome, Italy: Fratelli Scalera
!!!END: 1992//
!!!EED: John Miller
!!!YEC: Copyright 2000, John Miller
!!!YEN: United States of America
!!!YEM: Rights to all derivative electronic formats reserved.
!!!YEM: Refer to licensing agreement for further details.
!!!YEM: This file must be accompanied by the licensing agreement.
!!!YEM: A copy of the licensing agreement may be found at http://www.music-cog.ohio-state.edu/HumdrumDatabases/Palestrina/license.txt
!!!EMD: converted to Humdrum by Bret Aarden
